www/assets/icons/outlined_flag.svg

<svg width="24" height="24" viewBox="0 0 24 24" xmlns="http://www.w3.org/2000/svg" fill='currentColor'><path d="M13.5 5.5L12.5 3.5H4.5V20.5H6.5V13.5H11.5L12.5 15.5H19.5V5.5H13.5ZM17.5 13.5H13.5L12.5 11.5H6.5V5.5H11.5L12.5 7.5H17.5V13.5Z"/></svg>

<svg xmlns="http://www.w3.org/2000/svg" width="24" height="24" viewBox="0 0 24 24" fill='currentColor'><path d="m13.5 5.5-1-2h-8v17h2v-7h5l1 2h7v-10zm4 8h-4l-1-2h-6v-6h5l1 2h5z"/></svg>
